X: 55
T:Lovely Nancy. WCl.55
M:3/4
L:1/8
Q:100
S:William Clarke MS,Lincoln,1770.
R:Air
O:Lincoln
A:England
Z:vmp.Barry Callaghan
K:G
B>A|G2G2G>B|A2A2A3/2B/4c/4|B2 (ge)(dB)|A4 B>A|!
G2G2(dB)|A2A2(ge)|(d>e) (dB) (A>B)|G4::!
(B>c)|d2d2 (ge)|d4 (B>c)|d2d2(gB)|A4 B>A|!
G2G2 (dB)|A2A2 (c3/2d/4e/4)|(d>e) (dB) (AB)|G4:||
